Newaita/actions/16/transform-crop-and-resize.svg

<svg height="16" viewBox="0 0 16 16" width="16" xmlns="http://www.w3.org/2000/svg"><g fill="#424242"><path d="m4.960938 12.03125v-10.253906c0-.179688-.148438-.328125-.332032-.328125h-.660156c-.183594 0-.332031.148437-.332031.328125v10.253906c0 .183594.148437.332031.332031.332031h.660156c.183594 0 .332032-.148437.332032-.332031zm0 0"/><path d="m4.300781 12.363281h9.921875c.183594 0 .332032-.148437.332032-.332031v-.660156c0-.183594-.148438-.332032-.332032-.332032h-9.921875c-.183593 0-.332031.148438-.332031.332032v.660156c0 .183594.148438.332031.332031.332031zm0 0"/><path d="m10.914062 4.09375v10.253906c0 .183594.148438.332032.332032.332032h.660156c.183594 0 .332031-.148438.332031-.332032v-10.253906c0-.183594-.148437-.332031-.332031-.332031h-.660156c-.183594 0-.332032.148437-.332032.332031zm0 0"/><path d="m11.578125 3.761719h-9.925781c-.179688 0-.328125.148437-.328125.332031v.660156c0 .183594.148437.332032.328125.332032h9.925781c.179687 0 .328125-.148438.328125-.332032v-.660156c0-.183594-.148438-.332031-.328125-.332031zm0 0"/><path d="m6.285156 8.394531h3.308594l-1.65625 1.652344zm0 0"/><path d="m6.285156 7.734375h3.308594l-1.65625-1.65625zm0 0"/></g></svg>

<svg xmlns="http://www.w3.org/2000/svg" xmlns:xlink="http://www.w3.org/1999/xlink" width="16px" height="16px" viewBox="0 0 16 16" version="1.1">
<g id="surface1">
     <defs>
  <style id="current-color-scheme" type="text/css">
   .ColorScheme-Text { color:#424242; } .ColorScheme-Highlight { color:#eeeeee; }
  </style>
 </defs>
<path style="fill:currentColor" class="ColorScheme-Text" d="M 4.960938 12.03125 L 4.960938 1.777344 C 4.960938 1.597656 4.8125 1.449219 4.628906 1.449219 L 3.96875 1.449219 C 3.785156 1.449219 3.636719 1.597656 3.636719 1.777344 L 3.636719 12.03125 C 3.636719 12.214844 3.785156 12.363281 3.96875 12.363281 L 4.628906 12.363281 C 4.8125 12.363281 4.960938 12.214844 4.960938 12.03125 Z M 4.960938 12.03125 "/>
     <defs>
  <style id="current-color-scheme" type="text/css">
   .ColorScheme-Text { color:#424242; } .ColorScheme-Highlight { color:#eeeeee; }
  </style>
 </defs>
<path style="fill:currentColor" class="ColorScheme-Text" d="M 4.300781 12.363281 L 14.222656 12.363281 C 14.40625 12.363281 14.554688 12.214844 14.554688 12.03125 L 14.554688 11.371094 C 14.554688 11.1875 14.40625 11.039062 14.222656 11.039062 L 4.300781 11.039062 C 4.117188 11.039062 3.96875 11.1875 3.96875 11.371094 L 3.96875 12.03125 C 3.96875 12.214844 4.117188 12.363281 4.300781 12.363281 Z M 4.300781 12.363281 "/>
     <defs>
  <style id="current-color-scheme" type="text/css">
   .ColorScheme-Text { color:#424242; } .ColorScheme-Highlight { color:#eeeeee; }
  </style>
 </defs>
<path style="fill:currentColor" class="ColorScheme-Text" d="M 10.914062 4.09375 L 10.914062 14.347656 C 10.914062 14.53125 11.0625 14.679688 11.246094 14.679688 L 11.90625 14.679688 C 12.089844 14.679688 12.238281 14.53125 12.238281 14.347656 L 12.238281 4.09375 C 12.238281 3.910156 12.089844 3.761719 11.90625 3.761719 L 11.246094 3.761719 C 11.0625 3.761719 10.914062 3.910156 10.914062 4.09375 Z M 10.914062 4.09375 "/>
     <defs>
  <style id="current-color-scheme" type="text/css">
   .ColorScheme-Text { color:#424242; } .ColorScheme-Highlight { color:#eeeeee; }
  </style>
 </defs>
<path style="fill:currentColor" class="ColorScheme-Text" d="M 11.578125 3.761719 L 1.652344 3.761719 C 1.472656 3.761719 1.324219 3.910156 1.324219 4.09375 L 1.324219 4.753906 C 1.324219 4.9375 1.472656 5.085938 1.652344 5.085938 L 11.578125 5.085938 C 11.757812 5.085938 11.90625 4.9375 11.90625 4.753906 L 11.90625 4.09375 C 11.90625 3.910156 11.757812 3.761719 11.578125 3.761719 Z M 11.578125 3.761719 "/>
     <defs>
  <style id="current-color-scheme" type="text/css">
   .ColorScheme-Text { color:#424242; } .ColorScheme-Highlight { color:#eeeeee; }
  </style>
 </defs>
<path style="fill:currentColor" class="ColorScheme-Text" d="M 6.285156 8.394531 L 9.59375 8.394531 L 7.9375 10.046875 Z M 6.285156 8.394531 "/>
     <defs>
  <style id="current-color-scheme" type="text/css">
   .ColorScheme-Text { color:#424242; } .ColorScheme-Highlight { color:#eeeeee; }
  </style>
 </defs>
<path style="fill:currentColor" class="ColorScheme-Text" d="M 6.285156 7.734375 L 9.59375 7.734375 L 7.9375 6.078125 Z M 6.285156 7.734375 "/>
</g>
</svg>
